X: 153
T: Chouni lianghui
%%abc-version 2.0
%%abcx-abcm2ps-target-version 5.9.1 (29 Sep 2008)
%%abc-creator hum2abc beta
%%abcx-conversion-date 2013/10/02 07:52:29
%%abc-edited-by Helmut Schaffrath
%%humdrum-veritas 4108004694
%%humdrum-veritas-data 1573961062
%%continueall 1
%%barnumbers 0
L: 1/8
M: 2/4
K: F
f> d c f [I:setbarnb 1]| 
c G F C | 
F> G F C | 
F/ F/ F/ G/ F C | 
F F/ G/ F C | 
F/ F/ F/ G/ F C | 
F> G c c | 
C4 | 
f> d c f | 
c G F C | 
F F/ G/ F C | 
c G/ G/ F C | 
F/ F/ F/ G/ F C | 
c/ c/ c/ G/ F C | 
F Gc2- | 
c4 | 
fc2B | 
Gf3 | 
f> d c f | 
c G F C | 
F F/ G/ F C | 
F/ F/ F/ G/ F C | 
F F/ G/ F C | 
F/ F/ F/ G/ F C | 
F> G c c | 
C4 | 
f> d c f | 
c G F C | 
F> G F C | 
c> G F C | 
F> G F C | 
c> G F C | 
F> G F C | 
A/ c G/ F C | 
F> G F C | 
B> G F C | 
F Gc2- | 
c4 | 
fc2B | 
GF3 |]  



